assets/images/layouts/header/logo.svg

<svg viewBox="0 0 517.38 163.8" xmlns="http://www.w3.org/2000/svg"><path d="m36.78 7c-.06 0-.11-6.31-.17-6.31-20.07-.05-36.34 40.87-36.34 83.56s16.27 77.31 36.34 77.31h.17z" fill="#2ea7e0"/><path d="m36.61 161.83c-20.19 0-36.61-34.83-36.61-77.58 0-44.68 17.11-83.88 36.61-83.88.29 0 .29 0 .35 3.42 0 1.08 0 2.38.07 2.89v155.15zm-.25-160.91c-19.11.33-35.82 39.13-35.82 83.34 0 42.4 16.13 76.92 36 77v-154.26c-.06-.36-.08-1.2-.11-3.15-.03-1.13-.05-2.42-.07-2.93z" fill="#2ea7e0"/><path d="m248.94 7c-.06 0-.12-6.31-.18-6.31-20.07 0-36.33 40.92-36.33 83.61s16.26 77.31 36.33 77.31h.18z" fill="#2ea7e0"/><path d="m248.76 161.83c-20.18 0-36.61-34.8-36.61-77.58 0-44.68 17.11-83.88 36.61-83.88.3 0 .3 0 .36 3.43 0 1.08 0 2.37.06 2.88v155.15zm-.25-160.91c-19.11.33-35.81 39.13-35.81 83.34 0 42.4 16.12 76.92 36 77v-154.26c-.06-.36-.07-1.19-.11-3.14-.03-1.13-.05-2.43-.08-2.94z" fill="#2ea7e0"/><path d="m477.34 6.58c-.06 0-.11-6.31-.17-6.31-20.07 0-36.34 40.92-36.34 83.61s16.27 77.31 36.34 77.31h.17z" fill="#2ea7e0"/><path d="m477.17 161.46c-20.19 0-36.61-34.8-36.61-77.58 0-44.68 17.11-83.88 36.61-83.88.29 0 .29 0 .35 3.44 0 1.07.05 2.36.07 2.87v155.15zm-.25-160.92c-19.11.34-35.82 39.14-35.82 83.34 0 42.41 16.13 76.93 36 77v-154.3c-.1-.36-.1-1.19-.1-3.13 0-1.09-.06-2.39-.08-2.91z" fill="#2ea7e0"/><path d="m95.11 66.08s-.11-3.91-.11-3.91c-12.44 0-22.53 25.36-22.53 51.82s10.1 47.92 22.53 47.92h.1z" fill="#2ea7e0"/><path d="m95 162.18c-12.57 0-22.8-21.62-22.8-48.19.01-27.75 10.66-52.09 22.8-52.09.28 0 .28 0 .32 2.22v1.69 96.36zm-.26-99.74c-11.75.34-22 24.28-22 51.55 0 26.16 9.9 47.46 22.09 47.65v-95.56c0-.28 0-.83-.07-2 .02-.56.01-1.28-.01-1.64z" fill="#2ea7e0"/><path d="m109 65.66s-.07-4-.11-4c-12.63 0-22.87 25.75-22.87 52.63s10.27 48.71 22.9 48.71h.08z" fill="#2ea7e0"/><path d="m108.92 163.8c-13.06 0-23.69-22.2-23.69-49.48 0-25.32 9.77-53.46 23.69-53.46.83 0 .83.16.88 2.8v1.19 99zm-.79-101.25c-11.23 1.09-21.26 25.27-21.26 51.77 0 25.86 9.51 47 21.34 47.81v-96.47c0-.42-.06-1-.08-2 .02-.33.01-.75 0-1.11z" fill="#fff"/><g fill="#2ea7e0"><path d="m172.68 65.58s-.07-3.91-.1-3.91c-12.44 0-22.53 25.36-22.53 51.82s10.09 47.92 22.53 47.92h.1z"/><path d="m172.58 161.68c-12.57 0-22.8-21.62-22.8-48.19 0-27.75 10.65-52.09 22.8-52.09.28 0 .28 0 .32 2.22v1.69 96.36zm-.26-99.74c-11.75.34-22 24.28-22 51.55 0 26.16 9.9 47.46 22.09 47.65v-95.56c0-.28-.05-.83-.07-1.95.01-.63 0-1.33-.02-1.69z"/><path d="m310.25 65.21s-.08-3.91-.11-3.91c-12.44 0-22.52 25.36-22.52 51.82s10.08 47.88 22.52 47.88h.11z"/><path d="m310.14 161.31c-12.57 0-22.79-21.62-22.79-48.19 0-27.75 10.65-52.12 22.79-52.12.28 0 .28 0 .32 2.22v1.69 96.39zm-.25-99.74c-11.75.34-22 24.28-22 51.55 0 26.16 9.9 47.46 22.1 47.65v-95.56a17.68 17.68 0 0 1 -.08-1.95c0-.61-.01-1.33-.02-1.69z"/><path d="m373.28 65.79s-.07-3.91-.11-3.91c-12.44 0-22.52 25.36-22.52 51.83s10.08 47.92 22.52 47.92h.11z"/><path d="m373.17 161.9c-12.57 0-22.79-21.62-22.79-48.19 0-27.75 10.65-52.09 22.79-52.09.28 0 .28 0 .32 2.24v1.67 96.36zm-.25-99.74c-11.75.34-22 24.28-22 51.55 0 26.16 9.89 47.46 22.09 47.65v-95.56c0-.27 0-.82-.07-1.93.06-.62-.01-1.35-.02-1.71z"/><path d="m515.69 161.51s1.42-.08 1.42-.11c0-12.44-9.18-22.52-18.75-22.52s-17.36 10.12-17.36 22.52v.11z"/><path d="m516 161.78h-35.25v-.38c0-12.57 7.9-22.79 17.61-22.79 10.13 0 19 10.65 19 22.79 0 .27-.09.28-1 .32h-.46zm-34.67-.54h34.38a6.28 6.28 0 0 1 .72-.06h.45c-.12-11.76-8.7-22-18.48-22-9.4-.04-17.05 9.82-17.11 22.06z"/><path d="m482.09 84.5c0 .09-1.43.17-1.43.25 0 29 9.27 52.58 18.94 52.58s17.51-23.54 17.51-52.58v-.25z"/><path d="m499.6 137.57c-10.22 0-19.19-24.68-19.19-52.82 0-.26.18-.28.94-.37l.49-.06v-.06h35.51v.5c.01 29.12-7.96 52.81-17.75 52.81zm-18.69-52.63c0 13.71 2.08 26.81 5.82 36.9 3.59 9.68 8.28 15.24 12.87 15.24 9.52 0 17.26-23.48 17.26-52.33h-34.7a3.82 3.82 0 0 1 -.76.12z"/><path d="m403.21 161.66c0-.16 1-.31 1-.48 0-55.22-6.68-100-13.64-100s-12.57 44.82-12.57 100v.48z"/><path d="m403.48 161.93h-25.76v-.75c0-56.21 5.66-100.25 12.88-100.25 7.41 0 13.91 46.85 13.91 100.25 0 .28-.3.37-.71.5l-.32.11zm-25.22-.54h24.82a2.17 2.17 0 0 1 .56-.22l.33-.11c0-26.2-1.5-51.25-4.21-70.54-2.55-18.19-6-29-9.16-29-6.69 0-12.34 45.66-12.34 99.71z"/></g></svg>

<svg xmlns="http://www.w3.org/2000/svg" viewBox="0 0 517.38 163.8"><defs><style>.cls-1{fill:#2ea7e0;}.cls-2{fill:#fff;}</style></defs><g id="レイヤー_2" data-name="レイヤー 2"><g id="レイヤー_1-2" data-name="レイヤー 1"><path class="cls-1" d="M36.78,7c-.06,0-.11-6.31-.17-6.31C16.54.64.27,41.56.27,84.25s16.27,77.31,36.34,77.31h.17Z"/><path class="cls-1" d="M36.61,161.83C16.42,161.83,0,127,0,84.25,0,39.57,17.11.37,36.61.37c.29,0,.29,0,.35,3.42,0,1.08,0,2.38.07,2.89h0V161.83ZM36.36.92C17.25,1.25.54,40.05.54,84.26c0,42.4,16.13,76.92,36,77V7h0c-.06-.36-.08-1.2-.11-3.15C36.4,2.72,36.38,1.43,36.36.92Z"/><path class="cls-1" d="M248.94,7c-.06,0-.12-6.31-.18-6.31-20.07,0-36.33,40.92-36.33,83.61s16.26,77.31,36.33,77.31h.18Z"/><path class="cls-1" d="M248.76,161.83c-20.18,0-36.61-34.8-36.61-77.58,0-44.68,17.11-83.88,36.61-83.88.3,0,.3,0,.36,3.43,0,1.08,0,2.37.06,2.88h0V161.83ZM248.51.92c-19.11.33-35.81,39.13-35.81,83.34,0,42.4,16.12,76.92,36,77V7h0c-.06-.36-.07-1.19-.11-3.14C248.56,2.73,248.54,1.43,248.51.92Z"/><path class="cls-1" d="M477.34,6.58c-.06,0-.11-6.31-.17-6.31-20.07,0-36.34,40.92-36.34,83.61s16.27,77.31,36.34,77.31h.17Z"/><path class="cls-1" d="M477.17,161.46c-20.19,0-36.61-34.8-36.61-77.58C440.56,39.2,457.67,0,477.17,0c.29,0,.29,0,.35,3.44,0,1.07.05,2.36.07,2.87h0V161.46ZM476.92.54C457.81.88,441.1,39.68,441.1,83.88c0,42.41,16.13,76.93,36,77V6.58h0C477,6.22,477,5.39,477,3.45,477,2.36,476.94,1.06,476.92.54Z"/><path class="cls-1" d="M95.11,66.08S95,62.17,95,62.17c-12.44,0-22.53,25.36-22.53,51.82S82.57,161.91,95,161.91h.1Z"/><path class="cls-1" d="M95,162.18c-12.57,0-22.8-21.62-22.8-48.19C72.21,86.24,82.86,61.9,95,61.9c.28,0,.28,0,.32,2.22,0,.61,0,1.33,0,1.69h0v96.36Zm-.26-99.74c-11.75.34-22,24.28-22,51.55,0,26.16,9.9,47.46,22.09,47.65V66.08h0c0-.28,0-.83-.07-2C94.78,63.52,94.77,62.8,94.75,62.44Z"/><path class="cls-1" d="M109,65.66s-.07-4-.11-4c-12.63,0-22.87,25.75-22.87,52.63S96.29,163,108.92,163H109Z"/><path class="cls-2" d="M108.92,163.8c-13.06,0-23.69-22.2-23.69-49.48C85.23,89,95,60.86,108.92,60.86c.83,0,.83.16.88,2.8,0,.37,0,.82,0,1.19h0v99Zm-.79-101.25C96.9,63.64,86.87,87.82,86.87,114.32c0,25.86,9.51,47,21.34,47.81V65.66h0c0-.42-.06-1-.08-2C108.15,63.33,108.14,62.91,108.13,62.55Z"/><path class="cls-1" d="M172.68,65.58s-.07-3.91-.1-3.91c-12.44,0-22.53,25.36-22.53,51.82s10.09,47.92,22.53,47.92h.1Z"/><path class="cls-1" d="M172.58,161.68c-12.57,0-22.8-21.62-22.8-48.19,0-27.75,10.65-52.09,22.8-52.09.28,0,.28,0,.32,2.22,0,.61,0,1.33,0,1.69h0v96.36Zm-.26-99.74c-11.75.34-22,24.28-22,51.55,0,26.16,9.9,47.46,22.09,47.65V65.58h0c0-.28-.05-.83-.07-1.95C172.35,63,172.34,62.3,172.32,61.94Z"/><path class="cls-1" d="M310.25,65.21s-.08-3.91-.11-3.91c-12.44,0-22.52,25.36-22.52,51.82S297.7,161,310.14,161h.11Z"/><path class="cls-1" d="M310.14,161.31c-12.57,0-22.79-21.62-22.79-48.19C287.35,85.37,298,61,310.14,61c.28,0,.28,0,.32,2.22,0,.6,0,1.33,0,1.69h0V161.3Zm-.25-99.74c-11.75.34-22,24.28-22,51.55,0,26.16,9.9,47.46,22.1,47.65V65.21h0a17.68,17.68,0,0,1-.08-1.95C309.91,62.65,309.9,61.93,309.89,61.57Z"/><path class="cls-1" d="M373.28,65.79s-.07-3.91-.11-3.91c-12.44,0-22.52,25.36-22.52,51.83s10.08,47.92,22.52,47.92h.11Z"/><path class="cls-1" d="M373.17,161.9c-12.57,0-22.79-21.62-22.79-48.19,0-27.75,10.65-52.09,22.79-52.09.28,0,.28,0,.32,2.24,0,.6,0,1.31,0,1.67h0v96.36Zm-.25-99.74c-11.75.34-22,24.28-22,51.55,0,26.16,9.89,47.46,22.09,47.65V65.8h0c0-.27,0-.82-.07-1.93C373,63.25,372.93,62.52,372.92,62.16Z"/><path class="cls-1" d="M515.69,161.51s1.42-.08,1.42-.11c0-12.44-9.18-22.52-18.75-22.52S481,149,481,161.4v.11Z"/><path class="cls-1" d="M516,161.78H480.75v-.38c0-12.57,7.9-22.79,17.61-22.79,10.13,0,19,10.65,19,22.79,0,.27-.09.28-1,.32l-.46,0v0Zm-34.67-.54h34.38a6.28,6.28,0,0,1,.72-.06l.45,0c-.12-11.76-8.7-22-18.48-22C489,139.14,481.35,149,481.29,161.24Z"/><path class="cls-1" d="M482.09,84.5c0,.09-1.43.17-1.43.25,0,29,9.27,52.58,18.94,52.58s17.51-23.54,17.51-52.58V84.5Z"/><path class="cls-1" d="M499.6,137.57c-10.22,0-19.19-24.68-19.19-52.82,0-.26.18-.28.94-.37l.49-.06v-.06h35.51v.5C517.36,113.88,509.39,137.57,499.6,137.57ZM480.91,84.94c0,13.71,2.08,26.81,5.82,36.9,3.59,9.68,8.28,15.24,12.87,15.24,9.52,0,17.26-23.48,17.26-52.33h-34.7a3.82,3.82,0,0,1-.76.12Z"/><path class="cls-1" d="M403.21,161.66c0-.16,1-.31,1-.48,0-55.22-6.68-100-13.64-100S378,106,378,161.18v.48Z"/><path class="cls-1" d="M403.48,161.93H377.72v-.75c0-56.21,5.66-100.25,12.88-100.25,7.41,0,13.91,46.85,13.91,100.25,0,.28-.3.37-.71.5l-.32.11Zm-25.22-.54h24.82a2.17,2.17,0,0,1,.56-.22l.33-.11c0-26.2-1.5-51.25-4.21-70.54-2.55-18.19-6-29-9.16-29-6.69,0-12.34,45.66-12.34,99.71Z"/></g></g></svg>
